assets/images/rom_icon.svg

<svg height="217" viewBox="0 0 193 217" width="193" xmlns="http://www.w3.org/2000/svg" xmlns:xlink="http://www.w3.org/1999/xlink"><defs><path id="a" d="m126.730403 49.4850315c0 1.8087286-.060384 3.5949294-.178133 5.3537252 1.464309-.9812376 2.981105-1.9267093 4.547601-2.8310737 23.652355-13.6558082 49.740037-12.8176338 58.220485 1.8707382 8.480215 14.6883721-3.837626 37.7001938-27.490214 51.3557698-1.566496.904596-3.143444 1.745325-4.725501 2.522651 1.582057.777559 3.159005 1.618288 4.725501 2.522652 23.652588 13.655808 35.970429 36.66763 27.490214 51.356002-8.480448 14.68814-34.56813 15.526546-58.220485 1.870738-1.566496-.904364-3.083292-1.849836-4.547601-2.831074.117749 1.758796.178133 3.544997.178133 5.353726 0 27.311546-13.769841 49.485031-30.7305042 49.485031-16.9604306 0-30.7302714-22.173485-30.7302714-49.485031 0-1.808729.0603839-3.59493.1779001-5.353726-1.4640761.981238-2.9808721 1.92671-4.5473685 2.831074-23.652355 13.655808-49.7402694 12.817402-58.22048475-1.870738-8.480285-14.688372 3.83762606-37.700194 27.48998105-51.356002 1.5664964-.904364 3.1436762-1.745093 4.7257332-2.522652-1.582057-.777326-3.1592368-1.618055-4.7257332-2.522651-23.65235499-13.655576-35.97026605-36.6673977-27.48998105-51.3557698 8.48021535-14.688372 34.56812975-15.5265464 58.22048475-1.8707382 1.5664964.9043644 3.0832924 1.8498361 4.5473685 2.8310737-.1175162-1.7587958-.1779001-3.5449966-.1779001-5.3537252 0-27.3116164 13.7698408-49.4850315 30.7302714-49.4850315 16.9606632 0 30.7305042 22.1734151 30.7305042 49.4850315z"/></defs><g fill="none" fill-rule="evenodd" transform="translate(.7964 .9286)" xlink:href="#a"><path d="m34.8953885 107.756842c-1.582057-.777326-3.1592368-1.618055-4.7257332-2.522651-23.65235499-13.655576-35.97026605-36.6673977-27.48998105-51.3557698 8.48021535-14.688372 34.56812975-15.5265464 58.22048475-1.8707382 1.5664964.9043644 3.0832924 1.8498361 4.5473685 2.8310737-.1175162-1.7587958-.1779001-3.5449966-.1779001-5.3537252 0-27.3116164 13.7698408-49.4850315 30.7302714-49.4850315 16.9606632 0 30.7305042 22.1734151 30.7305042 49.4850315 0 1.8087286-.060384 3.5949294-.178133 5.3537252 1.464309-.9812376 2.981105-1.9267093 4.547601-2.8310737 23.652355-13.6558082 49.740037-12.8176338 58.220485 1.8707382 8.480215 14.6883721-3.837626 37.7001938-27.490214 51.3557698-1.566496.904596-3.143444 1.745325-4.725501 2.522651 1.582057.777559 3.159005 1.618288 4.725501 2.522652 23.652588 13.655808 35.970429 36.66763 27.490214 51.356002-8.480448 14.68814-34.56813 15.526546-58.220485 1.870738-1.566496-.904364-3.083292-1.849836-4.547601-2.831074.117749 1.758796.178133 3.544997.178133 5.353726 0 27.311546-13.769841 49.485031-30.7305042 49.485031-16.9604306 0-30.7302714-22.173485-30.7302714-49.485031 0-1.808729.0603839-3.59493.1779001-5.353726-1.4640761.981238-2.9808721 1.92671-4.5473685 2.831074-23.652355 13.655808-49.7402694 12.817402-58.22048475-1.870738-8.480285-14.688372 3.83762606-37.700194 27.48998105-51.356002 1.5664964-.904364 3.1436762-1.745093 4.7257332-2.522652z" fill="#0063ff"/><path d="m95.9998988 60.3817621c26.1471372 0 47.3753122 21.2281756 47.3753122 47.3750799 0 26.147138-21.228175 47.375313-47.3753122 47.375313-26.1469048 0-47.3750803-21.228175-47.3750803-47.375313 0-26.1469043 21.2281755-47.3750799 47.3750803-47.3750799z" fill="#9cf"/><g fill="#000"><path d="m79.4586715 88.6051747c3.9609484 0 7.1770853 5.6233624 7.1770853 12.5498543 0 6.926493-3.2161369 12.550087-7.1770853 12.550087-3.9611807 0-7.1770854-5.623594-7.1770854-12.550087 0-6.9264919 3.2159047-12.5498543 7.1770854-12.5498543z"/><path d="m112.541358 88.6051747c3.961181 0 7.177086 5.6233624 7.177086 12.5498543 0 6.926493-3.215905 12.550087-7.177086 12.550087-3.96118 0-7.177085-5.623594-7.177085-12.550087 0-6.9264919 3.215905-12.5498543 7.177085-12.5498543z"/></g></g></svg>

<?xml version="1.0" encoding="UTF-8"?>
<svg width="193px" height="217px" viewBox="0 0 193 217" version="1.1" xmlns="http://www.w3.org/2000/svg" xmlns:xlink="http://www.w3.org/1999/xlink">
    <title>rom_icon</title>
    <defs>
        <path d="M126.730403,49.4850315 C126.730403,51.2937601 126.670019,53.0799609 126.55227,54.8387567 C128.016579,53.8575191 129.533375,52.9120474 131.099871,52.007683 C154.752226,38.3518748 180.839908,39.1900492 189.320356,53.8784212 C197.800571,68.5667933 185.48273,91.578615 161.830142,105.234191 C160.263646,106.138787 158.686698,106.979516 157.104641,107.756842 C158.686698,108.534401 160.263646,109.37513 161.830142,110.279494 C185.48273,123.935302 197.800571,146.947124 189.320356,161.635496 C180.839908,176.323636 154.752226,177.162042 131.099871,163.506234 C129.533375,162.60187 128.016579,161.656398 126.55227,160.67516 C126.670019,162.433956 126.730403,164.220157 126.730403,166.028886 C126.730403,193.340432 112.960562,215.513917 95.9998988,215.513917 C79.0394682,215.513917 65.2696274,193.340432 65.2696274,166.028886 C65.2696274,164.220157 65.3300113,162.433956 65.4475275,160.67516 C63.9834514,161.656398 62.4666554,162.60187 60.900159,163.506234 C37.247804,177.162042 11.1598896,176.323636 2.67967425,161.635496 C-5.80061075,146.947124 6.51730031,123.935302 30.1696553,110.279494 C31.7361517,109.37513 33.3133315,108.534401 34.8953885,107.756842 C33.3133315,106.979516 31.7361517,106.138787 30.1696553,105.234191 C6.51730031,91.578615 -5.80061075,68.5667933 2.67967425,53.8784212 C11.1598896,39.1900492 37.247804,38.3518748 60.900159,52.007683 C62.4666554,52.9120474 63.9834514,53.8575191 65.4475275,54.8387567 C65.3300113,53.0799609 65.2696274,51.2937601 65.2696274,49.4850315 C65.2696274,22.1734151 79.0394682,0 95.9998988,0 C112.960562,0 126.730403,22.1734151 126.730403,49.4850315 Z" id="path-1"></path>
    </defs>
    <g id="rom_icon" stroke="none" fill="none" transform="translate(0.7964, 0.9286)" xlink:href="#path-1" fill-rule="evenodd">
        <path d="M34.8953885,107.756842 C33.3133315,106.979516 31.7361517,106.138787 30.1696553,105.234191 C6.51730031,91.578615 -5.80061075,68.5667933 2.67967425,53.8784212 C11.1598896,39.1900492 37.247804,38.3518748 60.900159,52.007683 C62.4666554,52.9120474 63.9834514,53.8575191 65.4475275,54.8387567 C65.3300113,53.0799609 65.2696274,51.2937601 65.2696274,49.4850315 C65.2696274,22.1734151 79.0394682,0 95.9998988,0 C112.960562,0 126.730403,22.1734151 126.730403,49.4850315 C126.730403,51.2937601 126.670019,53.0799609 126.55227,54.8387567 C128.016579,53.8575191 129.533375,52.9120474 131.099871,52.007683 C154.752226,38.3518748 180.839908,39.1900492 189.320356,53.8784212 C197.800571,68.5667933 185.48273,91.578615 161.830142,105.234191 C160.263646,106.138787 158.686698,106.979516 157.104641,107.756842 C158.686698,108.534401 160.263646,109.37513 161.830142,110.279494 C185.48273,123.935302 197.800571,146.947124 189.320356,161.635496 C180.839908,176.323636 154.752226,177.162042 131.099871,163.506234 C129.533375,162.60187 128.016579,161.656398 126.55227,160.67516 C126.670019,162.433956 126.730403,164.220157 126.730403,166.028886 C126.730403,193.340432 112.960562,215.513917 95.9998988,215.513917 C79.0394682,215.513917 65.2696274,193.340432 65.2696274,166.028886 C65.2696274,164.220157 65.3300113,162.433956 65.4475275,160.67516 C63.9834514,161.656398 62.4666554,162.60187 60.900159,163.506234 C37.247804,177.162042 11.1598896,176.323636 2.67967425,161.635496 C-5.80061075,146.947124 6.51730031,123.935302 30.1696553,110.279494 C31.7361517,109.37513 33.3133315,108.534401 34.8953885,107.756842 Z" id="Fill-1" fill="#0063FF"></path>
        <path d="M95.9998988,60.3817621 C122.147036,60.3817621 143.375211,81.6099377 143.375211,107.756842 C143.375211,133.90398 122.147036,155.132155 95.9998988,155.132155 C69.852994,155.132155 48.6248185,133.90398 48.6248185,107.756842 C48.6248185,81.6099377 69.852994,60.3817621 95.9998988,60.3817621 Z" id="Fill-3" fill="#99CCFF"></path>
        <path d="M79.4586715,88.6051747 C83.4196199,88.6051747 86.6357568,94.2285371 86.6357568,101.155029 C86.6357568,108.081522 83.4196199,113.705116 79.4586715,113.705116 C75.4974908,113.705116 72.2815861,108.081522 72.2815861,101.155029 C72.2815861,94.2285371 75.4974908,88.6051747 79.4586715,88.6051747 Z" id="Fill-4" fill="#000000"></path>
        <path d="M112.541358,88.6051747 C116.502539,88.6051747 119.718444,94.2285371 119.718444,101.155029 C119.718444,108.081522 116.502539,113.705116 112.541358,113.705116 C108.580178,113.705116 105.364273,108.081522 105.364273,101.155029 C105.364273,94.2285371 108.580178,88.6051747 112.541358,88.6051747 Z" id="Fill-5" fill="#000000"></path>
    </g>
</svg>
